epam-assets/icon-sources/18/communication-telescope.svg

<svg width="18" height="18" viewBox="0 0 18 18" fill="none" xmlns="http://www.w3.org/2000/svg">
<path fill-rule="evenodd" clip-rule="evenodd" d="M1 8.98122C1 10.3429 1.35303 11.6794 1.97084 12.7637L4.63121 11.2381L4.35382 10.7716C4.24035 10.5825 4.316 10.3429 4.50512 10.2294L8.91805 7.69517L9.38455 8.59036C9.46021 8.70384 9.57368 8.77949 9.73759 8.77949C9.81324 8.77949 9.85106 8.77949 9.92671 8.74166C10.1158 8.62819 10.2041 8.38863 10.078 8.1995L9.32151 6.79997L9.28369 6.76215C9.17021 6.57302 9.24586 6.33347 9.43499 6.25782L10.1789 5.86696C10.368 5.75348 10.6076 5.82913 10.721 6.01826L13.0662 10.0403C13.1797 10.2294 13.104 10.469 12.9149 10.5825L12.2088 10.9733C12.0197 11.0868 11.7801 11.0112 11.6667 10.822L11.3515 10.3177L8.72892 11.8433C8.8424 11.8055 8.96848 11.7677 9.08195 11.7677C9.54846 11.7677 9.93932 12.1585 9.93932 12.6629C9.93932 12.9024 9.82585 13.1294 9.66194 13.2933L11.301 16.7354C14.5792 15.6763 17 12.6376 17 9.00644C17 4.59351 13.4444 1.00013 8.9937 1.00013C4.59338 0.974915 1 4.5683 1 8.98122ZM4.70686 3.98831C4.70686 3.98831 4.66903 4.02614 4.63121 4.02614C4.63121 4.02614 4.59338 3.98831 4.59338 3.91266V3.87484L4.63121 3.83701C5.72813 2.90399 7.05201 2.34923 8.57762 2.34923C10.4941 2.38705 12.171 3.32007 13.2679 4.69438L13.3058 4.7322C13.3814 4.80785 13.4192 4.92133 13.4192 5.04741C13.4192 5.28697 13.2301 5.4761 12.9527 5.4761C12.8014 5.4761 12.6753 5.40045 12.5997 5.28697C11.5028 3.96309 9.86367 3.05529 7.9472 3.05529C6.7368 3.04269 5.69031 3.35789 4.70686 3.98831ZM14.1847 7.875C14.3211 8.01463 14.4451 8.14163 14.5162 8.12385C14.594 8.08491 14.5717 7.85884 14.5489 7.62799C14.5273 7.41042 14.5054 7.18859 14.5666 7.11518C14.5966 7.0702 14.7316 6.99945 14.8813 6.921C15.1092 6.80159 15.3711 6.66434 15.3483 6.57302C15.3249 6.47178 15.0033 6.40421 14.743 6.34952C14.5819 6.31566 14.4442 6.28674 14.4153 6.25782C14.356 6.22224 14.3246 6.01385 14.2922 5.79908C14.2558 5.55709 14.2181 5.30701 14.1379 5.28697C14.0562 5.28697 13.9378 5.50373 13.8223 5.71513C13.7239 5.89536 13.6275 6.0717 13.5579 6.10651C13.4853 6.14002 13.2916 6.10676 13.0917 6.07243C12.8401 6.02925 12.5788 5.98439 12.5366 6.06869C12.4634 6.2078 12.6581 6.39793 12.8342 6.56995C12.9613 6.69416 13.0788 6.80893 13.0788 6.88823C13.0788 6.96484 13.0023 7.11384 12.9212 7.27157C12.8022 7.50325 12.6736 7.75374 12.7636 7.82125C12.8729 7.90868 13.1169 7.78983 13.3399 7.68119C13.5028 7.60182 13.6546 7.5279 13.7344 7.54387C13.8614 7.54387 14.0309 7.71748 14.1847 7.875Z" fill="#6C6F80"/>
<path d="M8.11111 12.5368C8.11111 12.2594 8.26241 11.9946 8.46414 11.8307L6.15682 13.1546C5.96769 13.2681 5.72813 13.1924 5.61466 13.0033L5.3751 12.6124L2.80299 14.1002C3.82427 15.3484 5.14815 16.2436 6.71158 16.7227L8.35067 13.2428C8.22459 13.0411 8.11111 12.8142 8.11111 12.5368Z" fill="#6C6F80"/>
<path d="M8.61545 16.9875V14.5667L7.51852 16.8362C7.87155 16.9119 8.22459 16.9497 8.61545 16.9875Z" fill="#6C6F80"/>
<path d="M10.4941 16.8362C10.1411 16.9119 9.7502 16.9497 9.39716 16.9497V14.6045L10.4941 16.8362Z" fill="#6C6F80"/>
<path d="M1.23956 12.9276C1.42868 12.8016 1.66824 12.852 1.78172 13.0411L2.44996 14.1002C2.57604 14.2893 2.52561 14.5289 2.33649 14.6424C2.29866 14.6802 2.22301 14.6802 2.14736 14.6802C1.98345 14.6802 1.86998 14.6045 1.79433 14.4911L1.12608 13.432C1 13.2428 1.08826 13.0033 1.23956 12.9276Z" fill="#6C6F80"/>
</svg>

<svg xmlns="http://www.w3.org/2000/svg" width="18" height="18" fill="none" viewBox="0 0 18 18">
  <path fill="#6C6F80" fill-rule="evenodd" d="M1 8.981c0 1.362.353 2.698.97 3.783l2.661-1.526-.277-.466a.397.397 0 0 1 .151-.543l4.413-2.534.467.895c.075.114.189.19.353.19.075 0 .113 0 .189-.038.189-.114.277-.353.151-.543L9.322 6.8l-.038-.038c-.114-.189-.038-.429.151-.504l.744-.391c.189-.114.429-.038.542.151l2.345 4.022c.114.19.038.429-.151.543l-.706.39a.396.396 0 0 1-.542-.151l-.316-.504-2.622 1.525c.113-.037.24-.075.353-.075.466 0 .857.39.857.895a.91.91 0 0 1-.277.63l1.639 3.442C14.579 15.676 17 12.638 17 9.006A7.993 7.993 0 0 0 8.994 1C4.594.975 1 4.568 1 8.981Zm3.707-4.993s-.038.038-.076.038c0 0-.038-.038-.038-.113v-.038l.038-.038c1.097-.933 2.421-1.488 3.947-1.488 1.916.038 3.593.971 4.69 2.345l.038.038a.44.44 0 0 1 .113.315c0 .24-.189.43-.466.43a.419.419 0 0 1-.353-.19c-1.097-1.324-2.736-2.232-4.653-2.232a5.695 5.695 0 0 0-3.24.933Zm9.478 3.887c.136.14.26.267.331.249.078-.04.056-.265.033-.496-.022-.218-.044-.44.018-.513.03-.045.165-.116.314-.194.228-.12.49-.257.467-.348-.023-.101-.345-.169-.605-.223-.161-.034-.299-.063-.328-.092-.059-.036-.09-.244-.123-.459-.036-.242-.074-.492-.154-.512-.082 0-.2.217-.316.428-.098.18-.194.357-.264.392-.073.033-.266 0-.466-.035-.252-.043-.513-.088-.555-.003-.074.139.121.329.297.501.127.124.245.239.245.318 0 .077-.077.226-.158.384-.119.231-.247.482-.157.55.109.087.353-.032.576-.14.163-.08.315-.154.394-.138.127 0 .297.173.45.331Z" clip-rule="evenodd"/>
  <path fill="#6C6F80" d="M8.111 12.537a.94.94 0 0 1 .353-.706l-2.307 1.324a.397.397 0 0 1-.542-.152l-.24-.39L2.803 14.1a8.026 8.026 0 0 0 3.909 2.623l1.639-3.48c-.126-.202-.24-.429-.24-.706Zm.504 4.451v-2.421l-1.096 2.27c.353.075.706.113 1.096.15Zm1.879-.152a5.397 5.397 0 0 1-1.097.114v-2.345l1.097 2.231ZM1.24 12.928a.376.376 0 0 1 .542.113l.668 1.06a.376.376 0 0 1-.114.541c-.037.038-.113.038-.189.038a.403.403 0 0 1-.353-.189l-.668-1.059c-.126-.19-.038-.429.114-.504Z"/>
</svg>
